symbols/web/waves/materialsymbolsrounded/waves_wght300grad200_48px.svg

<svg xmlns="http://www.w3.org/2000/svg" height="48" width="48"><path d="M4 39.55q0-.5.375-1.025Q4.75 38 5.45 37.75 7.4 37 8.925 35.675q1.525-1.325 4.825-1.325 1.8 0 3.075.575 1.275.575 2.35 1.275 1.075.7 2.2 1.275 1.125.575 2.625.575 1.45 0 2.575-.575 1.125-.575 2.2-1.275 1.075-.7 2.325-1.275 1.25-.575 3.2-.575 3.15 0 4.675 1.35t3.575 2.05q.7.25 1.075.75T44 39.55q0 .65-.425 1t-.975.2q-2.6-.6-4.125-2.05-1.525-1.45-4.225-1.45-1.5 0-2.625.575t-2.25 1.25Q28.25 39.75 27 40.35q-1.25.6-3 .6-1.8 0-3.05-.6-1.25-.6-2.375-1.275-1.125-.675-2.25-1.25T13.7 37.25q-2.75 0-4.25 1.45T5.4 40.75q-.55.15-.975-.2Q4 40.2 4 39.55Zm0-9.15q0-.5.375-1.025.375-.525 1.075-.775 1.95-.75 3.475-2.075Q10.45 25.2 13.75 25.2q1.8 0 3.075.575 1.275.575 2.35 1.25 1.075.675 2.2 1.25 1.125.575 2.625.575 1.45 0 2.575-.575 1.125-.575 2.2-1.25 1.075-.675 2.325-1.25 1.25-.575 3.2-.575 3.15 0 4.675 1.35t3.575 2.05q.7.25 1.075.75T44 30.4q0 .65-.425.975-.425.325-.975.175-2.6-.6-4.125-2.025Q36.95 28.1 34.3 28.1q-1.5 0-2.65.575t-2.225 1.25q-1.075.675-2.375 1.25T24 31.75q-1.8 0-3.05-.575-1.25-.575-2.375-1.25t-2.25-1.25Q15.2 28.1 13.7 28.1q-2.75 0-4.25 1.45t-4.05 2q-.55.15-.975-.175Q4 31.05 4 30.4Zm0-18.3q0-.5.375-1t1.075-.75q1.95-.75 3.475-2.1Q10.45 6.9 13.75 6.9q1.8 0 3.075.6 1.275.6 2.35 1.275 1.075.675 2.2 1.25Q22.5 10.6 24 10.6q1.45 0 2.575-.575 1.125-.575 2.2-1.25Q29.85 8.1 31.1 7.5q1.25-.6 3.2-.6 3.15 0 4.675 1.35t3.575 2.1q.7.25 1.075.725T44 12.1q0 .65-.425 1t-.975.2q-2.6-.6-4.125-2.05Q36.95 9.8 34.25 9.8q-1.5 0-2.625.575t-2.25 1.275q-1.125.7-2.375 1.275t-3 .575q-1.8 0-3.05-.575-1.25-.575-2.375-1.275t-2.25-1.275Q15.2 9.8 13.7 9.8q-2.75 0-4.25 1.45T5.4 13.3q-.55.15-.975-.2Q4 12.75 4 12.1Zm0 9.15q0-.55.4-1.025.4-.475 1.05-.775 2-.55 3.5-1.975t4.8-1.425q1.8 0 3.075.6 1.275.6 2.35 1.275 1.075.675 2.2 1.25 1.125.575 2.625.575 1.45 0 2.575-.575 1.125-.575 2.2-1.25 1.075-.675 2.325-1.275 1.25-.6 3.2-.6 3.15 0 4.65 1.425 1.5 1.425 3.6 1.975.65.3 1.05.775.4.475.4 1.025 0 .6-.425.975t-.975.225q-2.6-.55-4.125-2.025-1.525-1.475-4.225-1.475-1.5 0-2.625.6t-2.25 1.275Q28.25 21.5 27 22.075t-3 .575q-1.8 0-3.05-.575-1.25-.575-2.375-1.25t-2.25-1.275q-1.125-.6-2.625-.6-2.75 0-4.25 1.475T5.4 22.45q-.55.15-.975-.225Q4 21.85 4 21.25Z"/></svg>

<svg xmlns="http://www.w3.org/2000/svg" height="48" width="48"><path d="M4 39.55Q4 39.05 4.375 38.525Q4.75 38 5.45 37.75Q7.4 37 8.925 35.675Q10.45 34.35 13.75 34.35Q15.55 34.35 16.825 34.925Q18.1 35.5 19.175 36.2Q20.25 36.9 21.375 37.475Q22.5 38.05 24 38.05Q25.45 38.05 26.575 37.475Q27.7 36.9 28.775 36.2Q29.85 35.5 31.1 34.925Q32.35 34.35 34.3 34.35Q37.45 34.35 38.975 35.7Q40.5 37.05 42.55 37.75Q43.25 38 43.625 38.5Q44 39 44 39.55Q44 40.2 43.575 40.55Q43.15 40.9 42.6 40.75Q40 40.15 38.475 38.7Q36.95 37.25 34.25 37.25Q32.75 37.25 31.625 37.825Q30.5 38.4 29.375 39.075Q28.25 39.75 27 40.35Q25.75 40.95 24 40.95Q22.2 40.95 20.95 40.35Q19.7 39.75 18.575 39.075Q17.45 38.4 16.325 37.825Q15.2 37.25 13.7 37.25Q10.95 37.25 9.45 38.7Q7.95 40.15 5.4 40.75Q4.85 40.9 4.425 40.55Q4 40.2 4 39.55ZM4 30.4Q4 29.9 4.375 29.375Q4.75 28.85 5.45 28.6Q7.4 27.85 8.925 26.525Q10.45 25.2 13.75 25.2Q15.55 25.2 16.825 25.775Q18.1 26.35 19.175 27.025Q20.25 27.7 21.375 28.275Q22.5 28.85 24 28.85Q25.45 28.85 26.575 28.275Q27.7 27.7 28.775 27.025Q29.85 26.35 31.1 25.775Q32.35 25.2 34.3 25.2Q37.45 25.2 38.975 26.55Q40.5 27.9 42.55 28.6Q43.25 28.85 43.625 29.35Q44 29.85 44 30.4Q44 31.05 43.575 31.375Q43.15 31.7 42.6 31.55Q40 30.95 38.475 29.525Q36.95 28.1 34.3 28.1Q32.8 28.1 31.65 28.675Q30.5 29.25 29.425 29.925Q28.35 30.6 27.05 31.175Q25.75 31.75 24 31.75Q22.2 31.75 20.95 31.175Q19.7 30.6 18.575 29.925Q17.45 29.25 16.325 28.675Q15.2 28.1 13.7 28.1Q10.95 28.1 9.45 29.55Q7.95 31 5.4 31.55Q4.85 31.7 4.425 31.375Q4 31.05 4 30.4ZM4 12.1Q4 11.6 4.375 11.1Q4.75 10.6 5.45 10.35Q7.4 9.6 8.925 8.25Q10.45 6.9 13.75 6.9Q15.55 6.9 16.825 7.5Q18.1 8.1 19.175 8.775Q20.25 9.45 21.375 10.025Q22.5 10.6 24 10.6Q25.45 10.6 26.575 10.025Q27.7 9.45 28.775 8.775Q29.85 8.1 31.1 7.5Q32.35 6.9 34.3 6.9Q37.45 6.9 38.975 8.25Q40.5 9.6 42.55 10.35Q43.25 10.6 43.625 11.075Q44 11.55 44 12.1Q44 12.75 43.575 13.1Q43.15 13.45 42.6 13.3Q40 12.7 38.475 11.25Q36.95 9.8 34.25 9.8Q32.75 9.8 31.625 10.375Q30.5 10.95 29.375 11.65Q28.25 12.35 27 12.925Q25.75 13.5 24 13.5Q22.2 13.5 20.95 12.925Q19.7 12.35 18.575 11.65Q17.45 10.95 16.325 10.375Q15.2 9.8 13.7 9.8Q10.95 9.8 9.45 11.25Q7.95 12.7 5.4 13.3Q4.85 13.45 4.425 13.1Q4 12.75 4 12.1ZM4 21.25Q4 20.7 4.4 20.225Q4.8 19.75 5.45 19.45Q7.45 18.9 8.95 17.475Q10.45 16.05 13.75 16.05Q15.55 16.05 16.825 16.65Q18.1 17.25 19.175 17.925Q20.25 18.6 21.375 19.175Q22.5 19.75 24 19.75Q25.45 19.75 26.575 19.175Q27.7 18.6 28.775 17.925Q29.85 17.25 31.1 16.65Q32.35 16.05 34.3 16.05Q37.45 16.05 38.95 17.475Q40.45 18.9 42.55 19.45Q43.2 19.75 43.6 20.225Q44 20.7 44 21.25Q44 21.85 43.575 22.225Q43.15 22.6 42.6 22.45Q40 21.9 38.475 20.425Q36.95 18.95 34.25 18.95Q32.75 18.95 31.625 19.55Q30.5 20.15 29.375 20.825Q28.25 21.5 27 22.075Q25.75 22.65 24 22.65Q22.2 22.65 20.95 22.075Q19.7 21.5 18.575 20.825Q17.45 20.15 16.325 19.55Q15.2 18.95 13.7 18.95Q10.95 18.95 9.45 20.425Q7.95 21.9 5.4 22.45Q4.85 22.6 4.425 22.225Q4 21.85 4 21.25Z"/></svg>
